X: 142
T: O'er the Moor to Moggie
B: 204 Favourite Country Dances
N: Published by Straight & Skillern, London ca.1775
F: http://imslp.org/wiki/204_Favourite_Country_Dances_(Various) p.71 #142
Z: 2014 John Chambers <jc:trillian.mit.edu>
M: 2/4
L: 1/8
K: G
% - - - - - - - - - - - - - - - - - - - - - - - - -
|:\
D(GGA) | GAGD | G(AAB) | cBAB |\
GABc | dege | e/f/g dB | ABAG :|
|:\
d(gga) | gage | daab | abag |\
bage | dege | (e/f/g) dB | ABAG :|
% - - - - - - - - - - - - - - - - - - - - - - - - -
%%begintext align
%% The 1st Cu. foot it and Cast off two Cu. foot it
%% and Cast up again :| Cross over two .|. Lead up
%% to the top Cast off :|: Foot it Corners and turn
%% .||. Lead outsides and turn :||:
%%endtext

%%sep 1 1 500
%%sep 1 1 500
